icons/mobile/24/svg/hockey-24.svg

<svg width="24" height="24" viewBox="0 0 24 24" fill="none" xmlns="http://www.w3.org/2000/svg">
<path fill-rule="evenodd" clip-rule="evenodd" d="M19.5 14.001C21.43 14.001 23 15.571 23 17.501C23 19.431 21.43 21.001 19.5 21.001H15.7031C15.0353 21.001 14.4132 20.6412 14.0791 20.0635L12.8613 17.9541L13.8721 16.2041L15.5947 19.1885C15.6168 19.2263 15.6582 19.25 15.7031 19.25H17V15.75H14.1338L15.1436 14L19.5 14.001ZM18.75 19.25H19.5C20.465 19.25 21.25 18.465 21.25 17.5C21.25 16.535 20.465 15.75 19.5 15.75H18.75V19.25Z" fill="black"/>
<path fill-rule="evenodd" clip-rule="evenodd" d="M18.6875 4.87793L12.4824 15.625V15.75H12.4111L9.9209 20.0625L9.91992 20.0645C9.58505 20.6419 8.96712 21 8.29688 21H4.5C2.56691 21 1.00026 19.433 1 17.5C1.00023 15.5669 2.56689 14 4.5 14H11.4004L17.1719 4.00293L18.6875 4.87793ZM4.5 15.75C3.53339 15.75 2.75023 16.5334 2.75 17.5C2.75026 18.4665 3.53341 19.25 4.5 19.25H5.25V15.75H4.5ZM7 19.25H8.29688C8.3402 19.25 8.38297 19.2264 8.40625 19.1865L10.3896 15.75H7V19.25Z" fill="black"/>
<path d="M11.7344 12.5H9.71289L5.3125 4.87695L6.82715 4.00195L11.7344 12.5Z" fill="black"/>
</svg>

<!-- This Source Code Form is subject to the terms of the Mozilla Public
   - License, v. 2.0. If a copy of the MPL was not distributed with this
   - file, You can obtain one at http://mozilla.org/MPL/2.0/. -->
<svg xmlns="http://www.w3.org/2000/svg" width="24" height="24" fill="none" viewBox="0 0 24 24">
    <path fill="#000" fill-rule="evenodd" d="M19.5 14.001c1.93 0 3.5 1.57 3.5 3.5s-1.57 3.5-3.5 3.5h-3.797c-.668 0-1.29-.36-1.624-.937l-1.218-2.11 1.011-1.75 1.723 2.985a.13.13 0 0 0 .108.061H17v-3.5h-2.866l1.01-1.75zm-.75 5.249h.75c.965 0 1.75-.785 1.75-1.75s-.785-1.75-1.75-1.75h-.75zM18.688 4.878l-6.206 10.747v.125h-.07L9.92 20.063l-.001.002A1.88 1.88 0 0 1 8.297 21H4.5a3.5 3.5 0 0 1 0-7h6.9l5.772-9.997zM4.5 15.75a1.75 1.75 0 0 0 0 3.5h.75v-3.5zm2.5 3.5h1.297a.13.13 0 0 0 .11-.064l1.983-3.436H7z" clip-rule="evenodd" />
    <path fill="#000" d="M11.734 12.5H9.713l-4.4-7.623 1.514-.875z" />
</svg>
